src/site/assets/img/signin/dslogon-icon.svg

<?xml version="1.0" encoding="UTF-8"?>
<svg width="16px" height="20px" viewBox="0 0 16 20" version="1.1" xmlns="http://www.w3.org/2000/svg" xmlns:xlink="http://www.w3.org/1999/xlink">
    <!-- Generator: Sketch 46.2 (44496) - http://www.bohemiancoding.com/sketch -->
    <title>dslogon-icon</title>
    <desc>Created with Sketch.</desc>
    <defs></defs>
    <g id="Round-3-mockups" stroke="none" stroke-width="1" fill="none" fill-rule="evenodd">
        <g id="dslogon-icon">
            <g id="dslogon">
                <rect id="Rectangle" fill="#FFFFFF" x="0.25" y="5.75" width="15.5" height="14" rx="2"></rect>
                <path d="M9.89805017,11.1271541 C9.43954888,11.6614917 8.75930586,12 8,12 C7.24069414,12 6.56045112,11.6614917 6.10194983,11.1271541 C4.28177535,10.3797282 3,8.58955144 3,6.5 L3,5.5 L3,5.5 C3,2.73857625 5.23857625,0.5 8,0.5 L8,0.5 L8,0.5 C10.7614237,0.5 13,2.73857625 13,5.5 L13,6.5 C13,8.58955144 11.7182246,10.3797282 9.89805017,11.1271541 Z M9.89805017,11.1271541 C10.2732816,10.6898591 10.5,10.121406 10.5,9.5 L10.5,5.5 C10.5,4.11928813 9.38071187,3 8,3 C6.61928813,3 5.5,4.11928813 5.5,5.5 L5.5,9.5 C5.5,10.121406 5.72671835,10.6898591 6.10194983,11.1271541 C6.68720694,11.3674807 7.32812769,11.5 8,11.5 C8.67187231,11.5 9.31279306,11.3674807 9.89805017,11.1271541 Z" id="Combined-Shape" fill="#FFFFFF"></path>
                <path d="M8,12.2792969 C8,13.4707091 7.75006072,14.4921077 7.09413297,15.1366422 C6.43820521,15.7811766 5.26921167,16.1960018 4.08105469,16.1960018 L1.77148438,16.1960018 L1.77148438,8.86132812 L4.2421875,8.86132812 C5.38802656,8.86132812 6.44156589,9.15429395 7.06494141,9.74023438 C7.68831692,10.3261748 8,11.1725205 8,12.2792969 Z M4.14999962,12.6959893 C3.70852342,12.5031001 3.39999962,12.06258 3.39999962,11.5500002 C3.39999962,10.8596443 3.95964368,10.3000002 4.64999962,10.3000002 C5.34035556,10.3000002 5.89999962,10.8596443 5.89999962,11.5500002 C5.89999962,12.06258 5.59147581,12.5031001 5.14999962,12.6959893 L5.14999962,14.25 L5.14999962,14.25 C5.14999962,14.5261424 4.92614199,14.75 4.64999962,14.75 C4.37385724,14.75 4.14999962,14.5261424 4.14999962,14.25 L4.14999962,12.6959893 Z M14.011489,13.8320313 C14.011489,14.6973039 13.7424567,15.0841167 13.5178462,15.4275429 C13.2932357,15.7709691 12.8929058,15.995279 12.4697266,16.1857096 C12.0465474,16.3761403 11.5501331,16.4713542 10.9804688,16.4713542 C10.505206,16.4713542 10.1064469,16.4379886 9.78417969,16.3712565 C9.46191245,16.3045244 9.12662935,16.1357909 8.77832031,15.9697744 L8.77832031,13.9296875 C9.14616069,14.1184905 9.52864385,14.2657872 9.92578125,14.371582 C10.3229187,14.4773768 10.6874983,14.5302734 11.0195312,14.5302734 C11.305991,14.5302734 11.5159499,14.480632 11.6494141,14.3813477 C11.7828783,14.2820633 11.8060662,14.1820627 11.8060662,14.0258119 C11.8060662,13.9281551 11.779211,13.8427068 11.7254998,13.7694642 C11.6717886,13.6962217 11.5855264,13.6221664 11.4667107,13.5472963 C11.347895,13.4724261 10.9929534,13.4236366 10.4766391,13.23606 C10.011142,13.0244704 9.66202437,12.8193944 9.42927581,12.6208257 C9.19652725,12.422257 9.02400294,12.1943947 8.91169769,11.9372319 C8.79939244,11.6800692 8.74324066,11.3757102 8.74324066,11.024146 C8.74324066,10.3665906 9.06640386,9.67838726 9.54492188,9.31054688 C10.0234399,8.94270649 10.6809854,8.75878906 11.5175781,8.75878906 C12.2565141,8.75878906 13.0100873,8.92968579 13.7783203,9.27148438 L13.2405025,11.10769 C12.5731814,10.8016988 11.95217,10.5794079 11.4671415,10.5794079 C11.2164892,10.5794079 11.0341994,10.6233528 10.9202665,10.7112439 C10.8063337,10.7991349 10.8136386,11.0260411 10.9584961,11.1367188 C11.1033536,11.2473964 11.5317446,11.4121462 12.1730239,11.7051164 C12.7882613,11.9818105 13.1793225,12.1367363 13.4185815,12.4541207 C13.6578405,12.7715051 14.011489,12.9667586 14.011489,13.8320313 Z" id="Combined-Shape" fill="#054680"></path>
            </g>
        </g>
    </g>
</svg>

<svg xmlns="http://www.w3.org/2000/svg" viewBox="0 0 16 20" width="16px" height="20px"><g fill="none" fill-rule="evenodd"><rect fill="#FFF" x=".25" y="5.75" width="15.5" height="14" rx="2"/><path d="M9.89805 11.12715C9.43955 11.6615 8.75931 12 8 12c-.7593 0-1.43955-.3385-1.89805-.87285C4.28178 10.37973 3 8.58955 3 6.5v-1c0-2.76142 2.23858-5 5-5s5 2.23858 5 5v1c0 2.08955-1.28178 3.87973-3.10195 4.62715zm0 0c.37523-.4373.60195-1.00574.60195-1.62715v-4C10.5 4.11929 9.38071 3 8 3S5.5 4.11929 5.5 5.5v4c0 .6214.22672 1.18986.60195 1.62715C6.68721 11.36748 7.32813 11.5 8 11.5s1.3128-.13252 1.89805-.37285z" fill="#FFF"/><path d="M8 12.2793c0 1.1914-.24994 2.2128-.90587 2.85734-.65592.64454-1.82492 1.05936-3.01308 1.05936H1.77148V8.86133h2.4707c1.14585 0 2.19939.29296 2.82276.8789C7.68832 10.32617 8 11.17252 8 12.2793zm-3.85.41669c-.44148-.19289-.75-.63341-.75-1.14599 0-.69036.55964-1.25 1.25-1.25s1.25.55964 1.25 1.25c0 .51258-.30852.9531-.75 1.14599V14.25c0 .27614-.22386.5-.5.5s-.5-.22386-.5-.5v-1.55401zm9.86149 1.13604c0 .86527-.26903 1.25209-.49364 1.59551-.22461.34343-.62494.56774-1.04812.75817-.42318.19043-.9196.28564-1.48926.28564-.47526 0-.87402-.03336-1.19629-.1001-.32227-.06673-.65755-.23546-1.00586-.40148V13.9297c.36784.1888.75032.3361 1.14746.4419.39714.10579.76172.15868 1.09375.15868.28646 0 .49642-.04964.62988-.14892.13347-.09929.15666-.19929.15666-.35554 0-.09765-.02686-.1831-.08057-.25635-.05371-.07324-.13997-.1473-.25879-.22216-.11882-.07487-.47376-.12366-.99007-.31124-.4655-.21159-.81462-.41667-1.04736-.61523-.23275-.19857-.40528-.42644-.51758-.6836-.1123-.25716-.16846-.56152-.16846-.91308 0-.65756.32316-1.34576.80168-1.7136.47852-.36784 1.13607-.55176 1.97266-.55176.73893 0 1.4925.1709 2.26074.5127l-.53782 1.8362c-.66732-.306-1.28833-.52828-1.77336-.52828-.25065 0-.43294.04394-.54687.13183-.11394.0879-.10663.3148.03823.42548.14485.11068.57324.27543 1.21452.5684.61524.27669 1.0063.43162 1.24556.749.23926.31739.5929.51264.5929 1.37791z" fill="#054680"/></g></svg>
